svg/device/storage_line.svg

<svg xmlns="http://www.w3.org/2000/svg" width="24" height="24" viewBox="0 0 24 24"><g fill="none"><path d="M24,0 L24,24 L0,24 L0,0 L24,0 Z M12.5935,23.2578 L12.5819,23.2595 L12.5109,23.295 L12.4919,23.2987 L12.4767,23.295 L12.4057,23.2595 C12.3958,23.2564 12.387,23.259 12.3821,23.2649 L12.378,23.2758 L12.3609,23.7031 L12.3659,23.7235 L12.3769,23.7357 L12.4805,23.8097 L12.4953,23.8136 L12.5071,23.8097 L12.6107,23.7357 L12.6233,23.7197 L12.6267,23.7031 L12.6096,23.2758 C12.6076,23.2657 12.601,23.2593 12.5935,23.2578 Z M12.8584,23.1453 L12.8445,23.1473 L12.6598,23.2397 L12.6499,23.2499 L12.6472,23.2611 L12.6651,23.6906 L12.6699,23.7034 L12.6784,23.7105 L12.8793,23.8032 C12.8914,23.8069 12.9022,23.803 12.9078,23.7952 L12.9118,23.7812 L12.8777,23.1665 C12.8753,23.1546 12.8674,23.147 12.8584,23.1453 Z M12.143,23.1473 C12.1332,23.1424 12.1222,23.1453 12.1156,23.1526 L12.1099,23.1665 L12.0758,23.7812 C12.0751,23.7927 12.0828,23.8019 12.0926,23.8046 L12.1083,23.8032 L12.3092,23.7105 L12.3186,23.7024 L12.3225,23.6906 L12.3404,23.2611 L12.3372,23.2485 L12.3278,23.2397 L12.143,23.1473 Z"/><path fill="#09244B" d="M19,4 C20.0543909,4 20.9181678,4.81587733 20.9945144,5.85073759 L21,6 L21,10 C21,11.0543909 20.18415,11.9181678 19.1492661,11.9945144 L19,12 L5,12 C3.94563773,12 3.08183483,11.18415 3.00548573,10.1492661 L3,10 L3,6 C3,4.94563773 3.81587733,4.08183483 4.85073759,4.00548573 L5,4 L19,4 Z M19,6 L5,6 L5,10 L19,10 L19,6 Z M10,7 C10.5523,7 11,7.44772 11,8 C11,8.51283143 10.613973,8.93550653 10.1166239,8.9932722 L10,9 L8,9 C7.44772,9 7,8.55228 7,8 C7,7.48716857 7.38604429,7.06449347 7.88337975,7.0067278 L8,7 L10,7 Z M19,13 C20.0543909,13 20.9181678,13.81585 20.9945144,14.8507339 L21,15 L21,19 C21,20.0543909 20.18415,20.9181678 19.1492661,20.9945144 L19,21 L5,21 C3.94563773,21 3.08183483,20.18415 3.00548573,19.1492661 L3,19 L3,15 C3,13.9456091 3.81587733,13.0818322 4.85073759,13.0054856 L5,13 L19,13 Z M19,15 L5,15 L5,19 L19,19 L19,15 Z M10,16 C10.5523,16 11,16.4477 11,17 C11,17.5523 10.5523,18 10,18 L8,18 C7.44772,18 7,17.5523 7,17 C7,16.4477 7.44772,16 8,16 L10,16 Z"/></g></svg>

<svg xmlns="http://www.w3.org/2000/svg" width="24" height="24"><g fill="none"><path d="M24 0v24H0V0zM12.594 23.258l-.012.002-.071.035-.02.004-.014-.004-.071-.036c-.01-.003-.019 0-.024.006l-.004.01-.017.428.005.02.01.013.104.074.015.004.012-.004.104-.074.012-.016.004-.017-.017-.427c-.002-.01-.009-.017-.016-.018m.264-.113-.014.002-.184.093-.01.01-.003.011.018.43.005.012.008.008.201.092c.012.004.023 0 .029-.008l.004-.014-.034-.614c-.003-.012-.01-.02-.02-.022m-.715.002a.023.023 0 0 0-.027.006l-.006.014-.034.614c0 .012.007.02.017.024l.015-.002.201-.093.01-.008.003-.011.018-.43-.003-.012-.01-.01z"/><path fill="#09244B" d="M19 4a2 2 0 0 1 1.995 1.85L21 6v4a2 2 0 0 1-1.85 1.995L19 12H5a2 2 0 0 1-1.995-1.85L3 10V6a2 2 0 0 1 1.85-1.995L5 4zm0 2H5v4h14zm-9 1a1 1 0 0 1 .117 1.993L10 9H8a1 1 0 0 1-.117-1.993L8 7zm9 6a2 2 0 0 1 1.995 1.85L21 15v4a2 2 0 0 1-1.85 1.995L19 21H5a2 2 0 0 1-1.995-1.85L3 19v-4a2 2 0 0 1 1.85-1.995L5 13zm0 2H5v4h14zm-9 1a1 1 0 1 1 0 2H8a1 1 0 1 1 0-2z"/></g></svg>
